static/images/atomicdex-logo.svg

<svg height="101" viewBox="0 0 100 101" width="100" xmlns="http://www.w3.org/2000/svg" xmlns:xlink="http://www.w3.org/1999/xlink"><linearGradient id="a" x1="15.116272%" x2="86.0465%" y1="86.079529%" y2="16.761353%"><stop offset="0" stop-color="#1b456e"/><stop offset=".62909842" stop-color="#08bbb5"/><stop offset="1" stop-color="#00edd3"/></linearGradient><g fill="none" opacity=".99" transform="translate(0 .082691)"><circle cx="49.973348" cy="50.103876" fill="url(#a)" r="49.973348"/><path d="m16.1023815 31.5090681c0-1.8666643 1.5132304-3.3798947 3.3798947-3.3798947s3.3798947 1.5132304 3.3798947 3.3798947c0 1.8666642-1.5132304 3.3798946-3.3798947 3.3798946s-3.3798947-1.5132304-3.3798947-3.3798946zm-1.1604305 20.0343256c-2.6698139-2.1906732-5.11278843-4.6440273-7.29212273-7.3231051 2.23379583-2.4799947 4.65983003-4.7798299 7.25550723-6.8780857.3795374-.2859503.571606-.7570678.5001796-1.2268704s-.3948327-.8625499-.8422053-1.022781c-.4473725-.1602312-.946587-.0621141-1.3000398.2555136-2.5514711 2.0678557-4.94646616 4.3216364-7.1653767 6.7428899-2.22509732-3.3798947-2.97430731-6.2837876-1.89555759-8.1511794 1.04495076-1.8082436 3.90659492-2.6701167 8.06104879-2.4222578.6997248.022641 1.2903346-.5158156 1.332295-1.214648.0419605-.6988324-.4799765-1.3040903-1.1773832-1.3653383-5.25855276-.3041905-8.87222348.9801695-10.44669108 3.7347836-.9998855 1.7321961-1.58855049 4.8276163 1.28717656 9.745363.33235631.5633158.7069613 1.1491642 1.12663155 1.7350126-4.01925807 5.0191436-5.37121594 9.3623082-3.6559194 12.3394321 1.29280971 2.2532631 4.08685597 3.3798947 8.16807879 3.3798947 1.52492638-.0125095 3.04662408-.1424565 4.55159148-.3886879.455891-.070885.8393248-.3796214 1.0058422-.8098925s.0908156-.9166958-.1985848-1.2760128c-.2894003-.359317-.7485238-.536927-1.204395-.4659152-5.30361807.8280742-8.9820701.194344-10.09461876-1.732196-.96326998-1.6674147-.16617816-4.7881841 3.00247309-8.9370048 2.20829025 2.6451968 4.66008707 5.0771907 7.32310517 7.2639569.3457251.3437781.8554516.4638173 1.3182542.3104451.4628026-.1533721.7999586-.5540668.8719526-1.0362765.0719941-.4822096-.1334201-.9639102-.5312419-1.2457738zm3.7488665-14.1166934c-.7129006 0-1.2912565.5770942-1.2928097 1.2899931v.2450424c0 3.5122739.1661782 6.9935654.4900847 10.3481108.0650039.6613489.6198293 1.1662886 1.28436 1.1688803.0422023.0027989.0845437.0027989.1267461 0 .7097697-.0683082 1.2302193-.6983925 1.163247-1.4082895-.3182734-3.270048-.4816349-6.6696588-.4816349-10.0974353v-.2394092c.0022474-.344109-.13249-.6749765-.3744925-.9196209s-.5713875-.3829663-.9155007-.3844551zm19.403412 9.9397069c-3.6904401 2.068592-7.5025958 3.9121215-11.4155942 5.5204946-.6610507.2699266-.9781459 1.0246105-.7082728 1.685683s1.0245313.9782287 1.6856256.7084091c4.0090101-1.6488694 7.9151551-3.5375135 11.6972522-5.6556904.5768492-.3684281.7665676-1.1226217.4327038-1.7201409-.3338639-.5975193-1.075594-.831266-1.6917146-.5331222zm29.596611-29.5346462c-1.9434394-3.3798947-7.1794596-4.2502176-15.1419281-2.534921-2.9664731.6540654-5.8839534 1.5133104-8.7313946 2.5715365-.5011234-2.2198079-1.135055-4.4075305-1.8983742-6.5513625-2.6644836-7.4076025-6.1964735-11.317014-10.2100984-11.317014-7.1822762 0-11.564873 12.4351958-13.2717198 24.0732998-.0834936.6959.4027471 1.3315865 1.096238 1.4331661s1.3416188-.3679494 1.4612157-1.0585611c1.8899244-12.8745821 6.2950538-21.86228538 10.7029997-21.86228538 2.7433479 0 5.5824594 3.49819099 7.7850241 9.59608428.7682955 2.1606318 1.3995238 4.3675792 1.8899244 6.6076941-4.772017 1.9311616-9.4009577 4.1985707-13.851935 6.7851385-.7632928.4393863-1.5434852.9013053-2.3293107 1.3801237-.5896814.3795326-.7692645 1.1599825-.4047663 1.7590737.3644981.5990912 1.1401566.7983546 1.7482744.4491241.7661095-.4647355 1.532219-.9210213 2.2786124-1.3491412 4.212736-2.4493869 8.5898133-4.6045164 13.0999084-6.4499657.9406457 5.2264367 1.4456099 10.5219665 1.5096863 15.8319899.0107725.7062877.5864399 1.2731758 1.2928097 1.2730937h.019716c.7129279-.0123431 1.2812581-.5995756 1.2702771-1.3125258-.0677983-5.6173917-.6181162-11.218572-1.6448821-16.7417449 11.0860546-4.0981223 19.2935654-4.3854133 21.0933594-1.2899931.9801694 1.6899473.1182963 4.588207-2.4278911 8.139913-2.7602473 3.8530799-7.2160751 8.1230135-12.8830318 12.3422487-.4469765.3332028-.6300076.9154108-.4540928 1.4444346.1759148.5290237.6711473.8856906 1.228652.8848848.2774537.0010196.54758-.0890225.768926-.2563174 5.8782002-4.3769636 10.5255554-8.8412411 13.4407145-12.908381 2.2419968-3.1404855 4.5093428-7.5709641 2.5630868-10.9395924zm-15.9502863 29.436066c-.3521933-.3018801-.8386845-.3929358-1.2762169-.2388674s-.7596346.5298542-.8449737.9858026.0790499.92279.4312433 1.22467c7.9117701 6.8104877 11.9282116 13.6153423 10.0016716 16.9501717-1.3350584 2.3095947-5.5261277 3.0447218-11.5029082 2.013854-2.2353106-.3979521-4.4403446-.950387-6.5992443-1.6533319 1.4815205-4.1178383 2.6109686-9.1313487 3.303847-14.747607.0569069-.4578778-.1348016-.9113307-.5029017-1.1895263-.3681002-.2781955-.8566605-.3388629-1.2816222-.1591464-.4249617.1797164-.7217535.5725094-.7785628 1.0303993-.6731624 5.4528967-1.7631784 10.2945958-3.1855508 14.2293565-4.4440466-1.6469253-8.7382471-3.6729361-12.83515-6.0556446-.6179573-.352985-1.4049953-.1401536-1.7608325.4761658-.3558373.6163194-.1466455 1.4043326.4680228 1.7630144 4.2053885 2.4427444 8.6114653 4.5223448 13.1703229 6.2161896-.1408289.3154569-.2816579.6252805-.4253034.9238379-1.9716052 4.0643233-4.2248683 6.3035036-6.4133501 6.3035036-3.1489352 0-6.3851844-4.5853905-8.655347-12.260568-.1201374-.4553326-.4783593-.8093249-.9350868-.9240457s-.9397083.0279781-1.2607519.3724949c-.3210437.3445168-.4293625.8363506-.2827507 1.2838614 2.6926494 9.1003664 6.6471262 14.1110602 11.1339364 14.1110602 3.2700481 0 6.2922372-2.6841997 8.7313945-7.7624914.1887108-.3886879.3689719-.7914587.5464163-1.2026792 2.3264223.7638914 4.7038984 1.3624958 7.1146783 1.7913442 1.7142419.3098866 3.4518046.4729009 5.1937715.4872681 4.4361117 0 7.5568811-1.2815434 8.9848866-3.7573162 2.6982826-4.6501718-1.2449278-12.2070529-10.5396382-20.2117701zm-11.9873597-8.514518-.8168079-.4788184c-3.8653017-2.24421-7.898478-4.1859353-12.0634074-5.8077857-.4349048-.1858751-.9365974-.1194261-1.3081171.1732595-.3715197.2926855-.5535593.7648852-.4746514 1.2312169s.4061668.8523531.8532975 1.0065151c4.0405102 1.572845 7.9531665 3.4561935 11.7028853 5.6331578l.7914586.4647355c.3981386.2491015.9000524.2626962 1.3110916.035512.4110391-.2271842.6665448-.6594101.6674302-1.1290536.0008808-.4696436-.2529976-.9028273-.6631794-1.1315557zm-16.0939318 17.6064346c0-1.8666643-1.5132304-3.3798947-3.3798947-3.3798947s-3.3798947 1.5132304-3.3798947 3.3798947 1.5132304 3.3798947 3.3798947 3.3798947 3.3798947-1.5132304 3.3798947-3.3798947zm24.4535379-11.9282116c0-1.8666643-1.5132304-3.3798947-3.3798946-3.3798947-1.8666643 0-3.3798947 1.5132304-3.3798947 3.3798947s1.5132304 3.3798947 3.3798947 3.3798947c1.8655642-.0015547 3.3770787-1.5143298 3.377078-3.3798947z" fill="#fff" transform="translate(17.899864 9.999893)"/></g></svg>

<?xml version="1.0" encoding="UTF-8"?>
<svg width="100px" height="101px" viewBox="0 0 100 101" version="1.1" xmlns="http://www.w3.org/2000/svg" xmlns:xlink="http://www.w3.org/1999/xlink">
    <!-- Generator: Sketch 63.1 (92452) - https://sketch.com -->
    <title>atomicdex-logo</title>
    <desc>Created with Sketch.</desc>
    <defs>
        <linearGradient x1="15.1162723%" y1="86.0795293%" x2="86.0465002%" y2="16.7613534%" id="linearGradient-1">
            <stop stop-color="#1B456E" offset="0%"></stop>
            <stop stop-color="#08BBB5" offset="62.909842%"></stop>
            <stop stop-color="#00EDD3" offset="100%"></stop>
        </linearGradient>
    </defs>
    <g id="Page-1" stroke="none" stroke-width="1" fill="none" fill-rule="evenodd" opacity="0.98999999">
        <g id="atomicdex-logo" fill-rule="nonzero">
            <g id="layer1" transform="translate(0.000000, 0.082691)">
                <circle id="path826" fill="url(#linearGradient-1)" cx="49.9733475" cy="50.1038763" r="49.9733475"></circle>
                <g id="Layer_2-4" transform="translate(17.899864, 9.999893)" fill="#FFFFFF">
                    <g id="Layer_1-2-4">
                        <path d="M16.1023815,31.5090681 C16.1023815,29.6424038 17.6156119,28.1291734 19.4822762,28.1291734 C21.3489405,28.1291734 22.8621709,29.6424038 22.8621709,31.5090681 C22.8621709,33.3757323 21.3489405,34.8889627 19.4822762,34.8889627 C17.6156119,34.8889627 16.1023815,33.3757323 16.1023815,31.5090681 L16.1023815,31.5090681 Z M14.941951,51.5433937 C12.2721371,49.3527205 9.82916257,46.8993664 7.64982827,44.2202886 C9.8836241,41.7402939 12.3096583,39.4404587 14.9053355,37.3422029 C15.2848729,37.0562526 15.4769415,36.5851351 15.4055151,36.1153325 C15.3340887,35.6455299 15.0106824,35.2527826 14.5633098,35.0925515 C14.1159373,34.9323203 13.6167228,35.0304374 13.26327,35.3480651 C10.7117989,37.4159208 8.31680384,39.6697015 6.0978933,42.090955 C3.87279598,38.7110603 3.12358599,35.8071674 4.20233571,33.9397756 C5.24728647,32.131532 8.10893063,31.2696589 12.2633845,31.5175178 C12.9631093,31.5401588 13.5537191,31.0017022 13.5956795,30.3028698 C13.63764,29.6040374 13.115703,28.9987795 12.4182963,28.9375315 C7.15974354,28.633341 3.54607282,29.917701 1.97160522,32.6723151 C0.971719717,34.4045112 0.383054729,37.4999314 3.25878178,42.4176781 C3.59113809,42.9809939 3.96574308,43.5668423 4.38541333,44.1526907 C0.366155256,49.1718343 -0.985802612,53.5149989 0.729493933,56.4921228 C2.02230364,58.7453859 4.8163499,59.8720175 8.89757272,59.8720175 C10.4224991,59.859508 11.9441968,59.729561 13.4491642,59.4833296 C13.9050552,59.4124446 14.288489,59.1037082 14.4550064,58.6734371 C14.6215238,58.243166 14.545822,57.7567413 14.2564216,57.3974243 C13.9670213,57.0381073 13.5078978,56.8604973 13.0520266,56.9315091 C7.74840853,57.7595833 4.0699565,57.1258531 2.95740784,55.1993131 C1.99413786,53.5318984 2.79122968,50.411129 5.95988093,46.2623083 C8.16817118,48.9075051 10.619968,51.339499 13.2829861,53.5262652 C13.6287112,53.8700433 14.1384377,53.9900825 14.6012403,53.8367103 C15.0640429,53.6833382 15.4011989,53.2826435 15.4731929,52.8004338 C15.545187,52.3182242 15.3397728,51.8365236 14.941951,51.55466 L14.941951,51.5433937 Z M18.6908175,37.4267003 L18.6908175,37.4267003 C17.9779169,37.4267003 17.399561,38.0037945 17.3980078,38.7166934 L17.3980078,38.9617358 C17.3980078,42.4740097 17.564186,45.9553012 17.8880925,49.3098466 C17.9530964,49.9711955 18.5079218,50.4761352 19.1724525,50.4787269 C19.2146548,50.4815258 19.2569962,50.4815258 19.2991986,50.4787269 C20.0089683,50.4104187 20.5294179,49.7803344 20.4624456,49.0704374 C20.1441722,45.8003894 19.9808107,42.4007786 19.9808107,38.9730021 L19.9808107,38.7335929 C19.9830581,38.3894839 19.8483207,38.0586164 19.6063182,37.813972 C19.3643157,37.5693276 19.0349307,37.4310057 18.6908175,37.4295169 L18.6908175,37.4267003 Z M38.0942295,47.3664072 C34.4037894,49.4349992 30.5916337,51.2785287 26.6786353,52.8869018 C26.0175846,53.1568284 25.7004894,53.9115123 25.9703625,54.5725848 C26.2402356,55.2336573 26.9948938,55.5508135 27.6559881,55.2809939 C31.6649982,53.6321245 35.5711432,51.7434804 39.3532403,49.6253035 C39.9300895,49.2568754 40.1198079,48.5026818 39.7859441,47.9051626 C39.4520802,47.3076433 38.7103501,47.0738966 38.0942295,47.3720404 L38.0942295,47.3664072 Z M67.6908405,17.831761 C65.7474011,14.4518663 60.5113809,13.5815434 52.5489124,15.29684 C49.5824393,15.9509054 46.664959,16.8101504 43.8175178,17.8683765 C43.3163944,15.6485686 42.6824628,13.460846 41.9191436,11.317014 C39.25466,3.9094115 35.7226701,0 31.7090452,0 C24.526769,0 20.1441722,12.4351958 18.4373254,24.0732998 C18.3538318,24.7691998 18.8400725,25.4048863 19.5335634,25.5064659 C20.2270543,25.6080455 20.8751822,25.1385165 20.9947791,24.4479048 C22.8847035,11.5733227 27.2898329,2.58561942 31.6977788,2.58561942 C34.4411267,2.58561942 37.2802382,6.08381041 39.4828029,12.1817037 C40.2510984,14.3423355 40.8823267,16.5492829 41.3727273,18.7893978 C36.6007103,20.7205594 31.9717696,22.9879685 27.5207923,25.5745363 C26.7574995,26.0139226 25.9773071,26.4758416 25.1914816,26.95466 C24.6018002,27.3341926 24.4222171,28.1146425 24.7867153,28.7137337 C25.1512134,29.3128249 25.9268719,29.5120883 26.5349897,29.1628578 C27.3010992,28.6981223 28.0672087,28.2418365 28.8136021,27.8137166 C33.0263381,25.3643297 37.4034154,23.2092002 41.9135105,21.3637509 C42.8541562,26.5901876 43.3591204,31.8857174 43.4231968,37.1957408 C43.4339693,37.9020285 44.0096367,38.4689166 44.7160065,38.4688345 L44.7357225,38.4688345 C45.4486504,38.4564914 46.0169806,37.8692589 46.0059996,37.1563087 C45.9382013,31.538917 45.3878834,25.9377367 44.3611175,20.4145638 C55.4471721,16.3164415 63.6546829,16.0291505 65.4544769,19.1245707 C66.4346463,20.814518 65.5727732,23.7127777 63.0265858,27.2644837 C60.2663385,31.1175636 55.8105107,35.3874972 50.143554,39.6067324 C49.6965775,39.9399352 49.5135464,40.5221432 49.6894612,41.051167 C49.865376,41.5801907 50.3606085,41.9368576 50.9181132,41.9360518 C51.1955669,41.9370714 51.4656932,41.8470293 51.6870392,41.6797344 C57.5652394,37.3027708 62.2125946,32.8384933 65.1277537,28.7713534 C67.3697505,25.6308679 69.6370965,21.2003893 67.6908405,17.831761 L67.6908405,17.831761 Z M51.7405542,47.267827 C51.3883609,46.9659469 50.9018697,46.8748912 50.4643373,47.0289596 C50.0268049,47.183028 49.7047027,47.5588138 49.6193636,48.0147622 C49.5340245,48.4707106 49.6984135,48.9375522 50.0506069,49.2394322 C57.962377,56.0499199 61.9788185,62.8547745 60.0522785,66.1896039 C58.7172201,68.4991986 54.5261508,69.2343257 48.5493703,68.2034579 C46.3140597,67.8055058 44.1090257,67.2530709 41.950126,66.550126 C43.4316465,62.4322877 44.5610946,57.4187773 45.253973,51.802519 C45.3108799,51.3446412 45.1191714,50.8911883 44.7510713,50.6129927 C44.3829711,50.3347972 43.8944108,50.2741298 43.4694491,50.4538463 C43.0444874,50.6335627 42.7476956,51.0263557 42.6908863,51.4842456 C42.0177239,56.9371423 40.9277079,61.7788414 39.5053355,65.7136021 C35.0612889,64.0666768 30.7670884,62.040666 26.6701855,59.6579575 C26.0522282,59.3049725 25.2651902,59.5178039 24.909353,60.1341233 C24.5535157,60.7504427 24.7627075,61.5384559 25.3773758,61.8971377 C29.5827643,64.3398821 33.9888411,66.4194825 38.5476987,68.1133273 C38.4068698,68.4287842 38.2660408,68.7386078 38.1223953,69.0371652 C36.1507901,73.1014885 33.897527,75.3406688 31.7090452,75.3406688 C28.56011,75.3406688 25.3238608,70.7552783 23.0536982,63.0801008 C22.9335608,62.6247682 22.5753389,62.2707759 22.1186114,62.1560551 C21.6618839,62.0413343 21.1789031,62.1840332 20.8578595,62.52855 C20.5368158,62.8730668 20.428497,63.3649006 20.5751088,63.8124114 C23.2677582,72.9127778 27.222235,77.9234716 31.7090452,77.9234716 C34.9790933,77.9234716 38.0012824,75.2392719 40.4404397,70.1609802 C40.6291505,69.7722923 40.8094116,69.3695215 40.986856,68.958301 C43.3132783,69.7221924 45.6907544,70.3207968 48.1015343,70.7496452 C49.8157762,71.0595318 51.5533389,71.2225461 53.2953058,71.2369133 C57.7314175,71.2369133 60.8521869,69.9553699 62.2801924,67.4795971 C64.978475,62.8294253 61.0352646,55.2725442 51.7405542,47.267827 L51.7405542,47.267827 Z M39.7531945,38.753309 L38.9363866,38.2744906 C35.0710849,36.0302806 31.0379086,34.0885553 26.8729792,32.4667049 C26.4380744,32.2808298 25.9363818,32.3472788 25.5648621,32.6399644 C25.1933424,32.9326499 25.0113028,33.4048496 25.0902107,33.8711813 C25.1691186,34.337513 25.4963775,34.7235344 25.9435082,34.8776964 C29.9840184,36.4505414 33.8966747,38.3338899 37.6463935,40.5108542 L38.4378521,40.9755897 C38.8359907,41.2246912 39.3379045,41.2382859 39.7489437,41.0111017 C40.1599828,40.7839175 40.4154885,40.3516916 40.4163739,39.8820481 C40.4172547,39.4124045 40.1633763,38.9792208 39.7531945,38.7504924 L39.7531945,38.753309 Z M23.6592627,56.3597436 C23.6592627,54.4930793 22.1460323,52.9798489 20.279368,52.9798489 C18.4127037,52.9798489 16.8994733,54.4930793 16.8994733,56.3597436 C16.8994733,58.2264079 18.4127037,59.7396383 20.279368,59.7396383 C22.1460323,59.7396383 23.6592627,58.2264079 23.6592627,56.3597436 L23.6592627,56.3597436 Z M48.1128006,44.431532 C48.1128006,42.5648677 46.5995702,41.0516373 44.732906,41.0516373 C42.8662417,41.0516373 41.3530113,42.5648677 41.3530113,44.431532 C41.3530113,46.2981963 42.8662417,47.8114267 44.732906,47.8114267 C46.5984702,47.809872 48.1099847,46.2970969 48.109984,44.431532 L48.1128006,44.431532 Z" id="path874"></path>
                    </g>
                </g>
            </g>
        </g>
    </g>
</svg>
